images/services/services4.svg

<svg width="101" height="100" viewBox="0 0 101 100" fill="none" xmlns="http://www.w3.org/2000/svg">
<rect x="0.5" width="100" height="100" rx="50" fill="#EBEDEF"/>
<path d="M68.1016 35.1563C68.6983 35.1563 69.2706 34.9192 69.6926 34.4973C70.1145 34.0753 70.3516 33.503 70.3516 32.9063C70.3516 32.3095 70.1145 31.7372 69.6926 31.3153C69.2706 30.8933 68.6983 30.6562 68.1016 30.6562C67.5048 30.6562 66.9325 30.8933 66.5105 31.3153C66.0886 31.7372 65.8516 32.3095 65.8516 32.9063C65.8516 33.503 66.0886 34.0753 66.5105 34.4973C66.9325 34.9192 67.5048 35.1563 68.1016 35.1563Z" fill="#F26600"/>
<path d="M46.5626 64.7968L45.5783 63.8124C45.7317 63.5165 45.8597 63.2081 45.9611 62.8905H47.3595C47.5667 62.8905 47.7654 62.8082 47.9119 62.6617C48.0584 62.5152 48.1408 62.3164 48.1408 62.1093V59.8358C48.1408 59.6286 48.0584 59.4299 47.9119 59.2834C47.7654 59.1369 47.5667 59.0546 47.3595 59.0546H45.9611C45.8612 58.7365 45.733 58.428 45.5783 58.1327L46.5626 57.1405C46.7081 56.9941 46.7898 56.7961 46.7898 56.5897C46.7898 56.3833 46.7081 56.1853 46.5626 56.0389L44.9611 54.4764C44.8147 54.331 44.6167 54.2493 44.4103 54.2493C44.2039 54.2493 44.0058 54.331 43.8595 54.4764L42.8673 55.4608C42.572 55.306 42.2635 55.1779 41.9455 55.078V53.6405C41.9455 53.4333 41.8631 53.2346 41.7166 53.0881C41.5701 52.9416 41.3714 52.8593 41.1642 52.8593H38.8908C38.6836 52.8593 38.4848 52.9416 38.3383 53.0881C38.1918 53.2346 38.1095 53.4333 38.1095 53.6405V55.0389C37.7919 55.1403 37.4835 55.2683 37.1876 55.4218C36.8204 55.1171 36.1329 54.1405 35.6251 54.203C35.419 54.206 35.2225 54.2902 35.0783 54.4374L33.4689 55.9999C33.3234 56.1463 33.2417 56.3443 33.2417 56.5507C33.2417 56.7571 33.3234 56.955 33.4689 57.1014L34.4533 58.0936C34.3017 58.3904 34.1737 58.6986 34.0705 59.0155H32.7032C32.496 59.0155 32.2973 59.0978 32.1508 59.2443C32.0043 59.3908 31.922 59.5896 31.922 59.7968V62.1093C31.922 62.3164 32.0043 62.5152 32.1508 62.6617C32.2973 62.8082 32.496 62.8905 32.7032 62.8905H34.0939C34.1986 63.2068 34.3265 63.515 34.4767 63.8124C34.172 64.1796 33.2032 64.8671 33.2657 65.3749C33.2666 65.5799 33.348 65.7763 33.4923 65.9218L35.1017 67.5311C35.248 67.6767 35.4461 67.7583 35.6525 67.7583C35.8589 67.7583 36.0569 67.6767 36.2033 67.5311L37.1876 66.5468C37.4851 66.6969 37.7932 66.8249 38.1095 66.9296V68.3202C38.1095 68.5274 38.1918 68.7261 38.3383 68.8726C38.4848 69.0192 38.6836 69.1014 38.8908 69.1014H41.1642C41.3714 69.1014 41.5701 69.0192 41.7166 68.8726C41.8631 68.7261 41.9455 68.5274 41.9455 68.3202V66.9061C42.2622 66.8028 42.5705 66.6749 42.8673 66.5233L43.8595 67.5077C44.0058 67.6532 44.2039 67.7349 44.4103 67.7349C44.6167 67.7349 44.8147 67.6532 44.9611 67.5077L46.5626 65.8983C46.7081 65.7519 46.7898 65.5539 46.7898 65.3475C46.7898 65.1411 46.7081 64.9432 46.5626 64.7968ZM40.0314 63.2343C39.4347 63.2343 38.8623 62.9972 38.4404 62.5753C38.0184 62.1533 37.7814 61.581 37.7814 60.9843C37.7814 60.3875 38.0184 59.8152 38.4404 59.3932C38.8623 58.9713 39.4347 58.7343 40.0314 58.7343C40.5941 58.7771 41.1203 59.03 41.5054 59.4427C41.8904 59.8553 42.1063 60.3977 42.1103 60.9621C42.1142 61.5264 41.9058 62.0718 41.5265 62.4897C41.1472 62.9077 40.6247 63.1679 40.0626 63.2186L40.0314 63.2343Z" fill="#F26600"/>
<path d="M72.6797 36.039C76.2734 30.6327 69.3906 24.5234 64.4609 28.7187L55.125 35.4921C55.094 35.5058 55.0671 35.5274 55.0468 35.5546L50.4062 38.9218C50.3649 38.9318 50.3286 38.9569 50.3047 38.9921C50.2656 39.0624 33.2188 51.3671 33.1953 51.4296C31.6801 52.5103 30.444 53.9364 29.5895 55.5898C28.7349 57.2431 28.2865 59.0763 28.2812 60.9374C28.2812 71.0937 40.5625 76.4687 47.9375 69.6015C47.9375 69.6015 47.9843 69.6015 47.9922 69.5546C49.0953 68.5358 49.9941 67.3161 50.6406 65.9609L66.7187 44.0859C66.7447 44.071 66.7672 44.0507 66.7847 44.0265C66.8022 44.0022 66.8143 43.9746 66.8203 43.9453C66.8203 43.9453 72.6797 36.0546 72.6797 36.039ZM72.0937 32.914C71.9297 38.1796 64.2812 38.1796 64.1172 32.914C64.2812 27.6249 71.9297 27.6249 72.0937 32.8984V32.914ZM29.8438 60.9374C29.8562 58.2368 30.9387 55.6513 32.8542 53.7475C34.7697 51.8437 37.3618 50.777 40.0625 50.7812C47.3047 50.6093 52.4687 58.6874 49.3281 65.1718L46.8515 68.5468C40.4453 74.4218 29.7734 69.7109 29.8438 60.9374ZM40.0625 49.2187C39.6475 49.2183 39.2327 49.2417 38.8203 49.289L41.2109 47.5468C41.625 48.0703 42.1093 49.1796 42.9453 48.6093C43.7812 48.039 42.8437 47.1874 42.4765 46.6328L46.0312 44.0468C46.4531 44.5781 46.9062 45.6093 47.7422 45.0781C47.9043 44.9503 48.0093 44.7635 48.0343 44.5585C48.0591 44.3536 48.0018 44.1471 47.875 43.9843L47.25 43.1328L50.625 40.6796C51.0312 41.2031 51.5078 42.2421 52.3203 41.6874C52.4042 41.6276 52.4754 41.5518 52.5299 41.4644C52.5843 41.377 52.621 41.2796 52.6377 41.1779C52.6544 41.0763 52.6508 40.9723 52.6272 40.8721C52.6036 40.7717 52.5604 40.6771 52.5 40.5937L51.8906 39.7656L55.3593 37.2421C55.7656 37.7734 56.2343 38.8046 57.0547 38.2578C57.1379 38.1974 57.2085 38.1211 57.2622 38.0334C57.316 37.9457 57.3518 37.8482 57.3679 37.7466C57.3838 37.6449 57.3795 37.5412 57.3553 37.4412C57.3311 37.3412 57.2873 37.247 57.2265 37.164L56.6172 36.3281L60.0312 33.8515C60.4453 34.3749 60.9218 35.414 61.75 34.8828C61.9184 34.7632 62.0327 34.582 62.0679 34.3785C62.103 34.1749 62.0561 33.9658 61.9375 33.7968L61.3125 32.9296L62.6328 31.9687C62.4893 32.841 62.5557 33.7349 62.8267 34.5764C63.0976 35.4178 63.5652 36.1827 64.1907 36.8074C64.8161 37.4321 65.5815 37.8987 66.4233 38.1686C67.2651 38.4385 68.1591 38.5039 69.0312 38.3593L65.9687 42.5156L65.1875 41.9062C65.0207 41.7818 64.8114 41.7289 64.6055 41.7589C64.3997 41.7889 64.2142 41.8996 64.0898 42.0664C63.9655 42.2331 63.9125 42.4424 63.9426 42.6483C63.9726 42.8542 64.0832 43.0396 64.25 43.164L65.0625 43.7499L62.5234 47.2031C61.9765 46.8203 61.2109 45.9531 60.5859 46.7343C60.5248 46.8168 60.4805 46.9107 60.4557 47.0103C60.4308 47.11 60.4259 47.2136 60.4411 47.3152C60.4564 47.4168 60.4915 47.5144 60.5445 47.6024C60.5975 47.6904 60.6673 47.7671 60.75 47.8281L61.6015 48.4609L59.125 51.8203C58.5781 51.4374 57.8125 50.5703 57.1875 51.3515C57.1264 51.434 57.0821 51.5278 57.0572 51.6275C57.0324 51.7272 57.0275 51.8308 57.0427 51.9324C57.0579 52.034 57.093 52.1316 57.1461 52.2196C57.199 52.3076 57.2689 52.3842 57.3515 52.4453L58.1875 53.1249L55.5781 56.6406L54.7422 56.0156C54.5754 55.8923 54.3665 55.8403 54.1614 55.871C53.9562 55.9018 53.7717 56.0128 53.6484 56.1796C53.5251 56.3464 53.4732 56.5553 53.504 56.7605C53.5347 56.9656 53.6457 57.1501 53.8125 57.2734L54.6562 57.8984L51.7343 61.8671C51.8626 60.2558 51.6561 58.6353 51.1279 57.1076C50.5996 55.5799 49.761 54.1781 48.6647 52.9902C47.5686 51.8022 46.2384 50.8539 44.758 50.2049C43.2776 49.5558 41.679 49.22 40.0625 49.2187Z" fill="#F26600"/>
</svg>

<svg width="101" height="100" fill="none" xmlns="http://www.w3.org/2000/svg"><rect x=".5" width="100" height="100" rx="50" fill="#EBEDEF"/><path d="M68.102 35.156a2.25 2.25 0 1 0 0-4.5 2.25 2.25 0 0 0 0 4.5ZM46.563 64.797l-.985-.985c.154-.295.282-.604.383-.921h1.398a.781.781 0 0 0 .782-.782v-2.273a.781.781 0 0 0-.782-.781h-1.398a5.607 5.607 0 0 0-.383-.922l.985-.992a.781.781 0 0 0 0-1.102l-1.602-1.563a.782.782 0 0 0-1.102 0l-.992.985a5.601 5.601 0 0 0-.921-.383V53.64a.781.781 0 0 0-.782-.78h-2.273a.781.781 0 0 0-.782.78v1.399c-.317.101-.626.23-.921.383-.368-.305-1.055-1.281-1.563-1.219a.781.781 0 0 0-.547.234L33.468 56a.781.781 0 0 0 0 1.101l.985.993c-.151.296-.28.605-.383.922h-1.367a.781.781 0 0 0-.781.78v2.313a.781.781 0 0 0 .781.782h1.39c.106.316.233.624.384.921-.305.368-1.274 1.055-1.211 1.563 0 .205.082.401.226.547l1.61 1.61a.78.78 0 0 0 1.101 0l.985-.985c.297.15.605.278.921.383v1.39a.781.781 0 0 0 .782.781h2.273a.78.78 0 0 0 .782-.78v-1.415c.316-.103.625-.231.921-.383l.992.985a.781.781 0 0 0 1.102 0l1.602-1.61a.781.781 0 0 0 0-1.101Zm-6.532-1.563a2.25 2.25 0 0 1 0-4.5 2.25 2.25 0 0 1 .032 4.485l-.032.015Z" fill="#F26600"/><path d="M72.68 36.039c3.593-5.406-3.29-11.516-8.22-7.32l-9.335 6.773a.197.197 0 0 0-.078.063l-4.64 3.367a.172.172 0 0 0-.102.07c-.04.07-17.086 12.375-17.11 12.438a11.719 11.719 0 0 0-4.914 9.507c0 10.157 12.282 15.532 19.657 8.665 0 0 .046 0 .054-.047a11.82 11.82 0 0 0 2.649-3.594l16.078-21.875a.211.211 0 0 0 .101-.14s5.86-7.891 5.86-7.907Zm-.586-3.125c-.164 5.266-7.813 5.266-7.977 0 .164-5.29 7.813-5.29 7.977-.016v.016Zm-42.25 28.023a10.203 10.203 0 0 1 10.218-10.156c7.243-.172 12.407 7.906 9.266 14.39l-2.477 3.376c-6.406 5.875-17.078 1.164-17.007-7.61ZM40.062 49.22c-.414 0-.83.023-1.242.07l2.39-1.742c.415.523.9 1.633 1.735 1.062.836-.57-.101-1.422-.468-1.976l3.554-2.586c.422.531.875 1.562 1.711 1.031a.782.782 0 0 0 .133-1.094l-.625-.851 3.375-2.453c.406.523.883 1.562 1.695 1.007a.782.782 0 0 0 .18-1.093l-.61-.828 3.47-2.524c.406.531.874 1.563 1.695 1.016a.782.782 0 0 0 .172-1.094l-.61-.836 3.414-2.477c.414.524.89 1.563 1.719 1.032a.782.782 0 0 0 .188-1.086l-.626-.867 1.32-.961a5.562 5.562 0 0 0 6.4 6.39l-3.063 4.157-.781-.61a.784.784 0 1 0-.938 1.258l.813.586-2.54 3.453c-.547-.383-1.312-1.25-1.937-.469a.781.781 0 0 0 .164 1.094l.852.633-2.477 3.36c-.547-.384-1.313-1.25-1.938-.47a.782.782 0 0 0 .165 1.094l.836.68-2.61 3.516-.836-.625a.782.782 0 1 0-.93 1.257l.844.625-2.922 3.97a11.719 11.719 0 0 0-11.672-12.65Z" fill="#F26600"/></svg>
